src/assets/bold/lm-ruler-measure-bold.svg

<svg width="24" height="24" viewBox="0 0 24 24" fill="none" xmlns="http://www.w3.org/2000/svg" fill="currentColor">
<path fill-rule="evenodd" clip-rule="evenodd" d="M3 3.75C3.41421 3.75 3.75 4.08579 3.75 4.5V5.51471H20.3438V4.5C20.3438 4.08579 20.6795 3.75 21.0938 3.75C21.508 3.75 21.8438 4.08579 21.8438 4.5V8.02941C21.8438 8.44363 21.508 8.77941 21.0938 8.77941C20.6795 8.77941 20.3438 8.44363 20.3438 8.02941V7.01471H3.75V8.02941C3.75 8.44363 3.41421 8.77941 3 8.77941C2.58579 8.77941 2.25 8.44363 2.25 8.02941V4.5C2.25 4.08579 2.58579 3.75 3 3.75ZM3.83052 13.2964C3.76715 13.3529 3.75 13.4084 3.75 13.4497V18.6176C3.75 18.6205 3.75046 18.6261 3.75479 18.6352C3.75926 18.6447 3.76903 18.6602 3.78918 18.6779C3.83179 18.7153 3.90824 18.75 4.00521 18.75H19.9629C20.0944 18.75 20.1985 18.7025 20.2632 18.6448C20.3266 18.5883 20.3438 18.5328 20.3438 18.4915V13.4497C20.3438 13.4084 20.3266 13.3529 20.2632 13.2964C20.1985 13.2387 20.0944 13.1912 19.9629 13.1912H18.8281V15.0882C18.8281 15.5024 18.4923 15.8382 18.0781 15.8382C17.6639 15.8382 17.3281 15.5024 17.3281 15.0882V13.1912H15.8125V14.2059C15.8125 14.6201 15.4767 14.9559 15.0625 14.9559C14.6483 14.9559 14.3125 14.6201 14.3125 14.2059V13.1912H12.7969V15.0882C12.7969 15.5024 12.4611 15.8382 12.0469 15.8382C11.6327 15.8382 11.2969 15.5024 11.2969 15.0882V13.1912H9.78125V14.2059C9.78125 14.6201 9.44546 14.9559 9.03125 14.9559C8.61704 14.9559 8.28125 14.6201 8.28125 14.2059V13.1912H6.76562V15.0882C6.76562 15.5024 6.42984 15.8382 6.01562 15.8382C5.60141 15.8382 5.26562 15.5024 5.26562 15.0882V13.1912H4.13086C3.99933 13.1912 3.8952 13.2387 3.83052 13.2964ZM4.13086 11.6912C3.17548 11.6912 2.25 12.4003 2.25 13.4497V18.6176C2.25 19.0845 2.4621 19.5089 2.79965 19.8052C3.13408 20.0988 3.56898 20.25 4.00521 20.25H19.9629C20.9183 20.25 21.8438 19.5409 21.8438 18.4915V13.4497C21.8438 12.4003 20.9183 11.6912 19.9629 11.6912H4.13086Z" fill="black"/>
</svg>

<svg xmlns="http://www.w3.org/2000/svg" width="24" height="24" fill="currentColor" viewBox="0 0 24 24">
  <path fill-rule="evenodd" d="M3 3.75a.75.75 0 0 1 .75.75v1.015h16.594V4.5a.75.75 0 1 1 1.5 0v3.53a.75.75 0 0 1-1.5 0V7.014H3.75v1.014a.75.75 0 1 1-1.5 0V4.5A.75.75 0 0 1 3 3.75Zm.83 9.546c-.063.057-.08.112-.08.154v5.168c0 .003 0 .008.005.017.004.01.014.025.034.043.043.037.12.072.216.072h15.958a.45.45 0 0 0 .3-.105c.064-.057.08-.112.08-.154V13.45c0-.042-.016-.097-.08-.154a.45.45 0 0 0-.3-.105h-1.135v1.897a.75.75 0 0 1-1.5 0v-1.897h-1.515v1.015a.75.75 0 0 1-1.5 0V13.19h-1.516v1.897a.75.75 0 0 1-1.5 0V13.19H9.78v1.015a.75.75 0 0 1-1.5 0V13.19H6.766v1.897a.75.75 0 0 1-1.5 0V13.19H4.13a.45.45 0 0 0-.3.105Zm.3-1.605c-.955 0-1.88.71-1.88 1.759v5.168c0 .466.212.89.55 1.187.334.294.769.445 1.205.445h15.958c.955 0 1.88-.71 1.88-1.759V13.45c0-1.05-.925-1.759-1.88-1.759H4.13Z" clip-rule="evenodd"/>
</svg>
